X: 142
T: Liao bing
%%abc-version 2.0
%%abcx-abcm2ps-target-version 5.9.1 (29 Sep 2008)
%%abc-creator hum2abc beta
%%abcx-conversion-date 2013/10/02 07:52:29
%%abc-edited-by Helmut Schaffrath
%%humdrum-veritas 253516757
%%humdrum-veritas-data 2037911210
%%continueall 1
%%barnumbers 0
L: 1/8
M: 2/4
K: F
AA2c [I:setbarnb 1]| 
d f d c | 
c d c A | 
G4 | 
c c A G | 
c c A G | 
c2A d | 
c4 | 
c f d c | 
A B A G | 
A B A G | 
F4 | 
d e d c | 
d f A c | 
d e d c | 
d4 | 
G2G A | 
G2F2 | 
D4 |]  



